X:1
T:James Gibb editions
T:Bona sera, come stai cor mio - Scandello
T:#
%%score [ 1 2 3 4 ]
L:1/8
Q:1/4=120
M:2/2
K:F
V:1 treble-8 nm="Tenor I" snm="T I"
V:2 treble-8 nm="Tenor II" snm="T II"
V:3 bass nm="Bass I" snm="B I"
V:4 bass nm="Bass II" snm="B II"
V:1
"^Bona sera, come stai cor mio""^Antonio Scandello\n(1517-80)" f6 f2 | e4 d4 | z2 f4 f2 | f4 e4 | %4
w: Bo- na|se- ra,|bo- na|se- ra,|
 d6 d2 | ^c4 d4 | d2 d2 c4 | c4 z2 f2- | f2 f2 e4 |[M:2/2][K:treble-8] d4 z2 f2- | f2 f2 f4 | %11
w: co- me|sta- i,|co- re mi-|o? Bo\-|* na se-|ra, bo\-|* na se-|
 d4 d4- | d2 d2 ^c4 | d4 d2 d2 | c4 c4 | d4 d2 d2 | d4 ^c4 | d4 f4 | _e4 e4 | d8 | d2 g4 g2 | %21
w: ra, co\-|* me sta-|i, co- re|mi- o?|Da l'al- tro|gior- no|non t'a-|gio ve-|du-|ta. non t'a-|
 f4 f4 | f8 | f8 | z4 f4 | g6 g2 | e2 e2 f4 | d4 z2 f2 | f2 f2 _e2 e2 | d4 g4 | f8- | f4 f4 | d8 | %33
w: gio ve-|du-|ta.|I'|t'a- gio|co- no- sciu-|ta, i'|t'a- gio co- no-|sciu- ta|di|* lon-|ta-|
 d2 f2 f4 | f4 z2 e2 | e2 e2 f4 | d4 e4- | e2 e2 d2 d2 | ^c8 | d2 d4 f2 | f2 (f3 e/d/) e2 | %41
w: no. A- di-|o, a-|dio, si- gno-|ra, toc\-|* ca- mi la|ma-|no, toc- ca-|mi la * * ma-|
 f2 a2 a4 | f4 z2 e2 | e2 e2 f4 | d4 e4- | e2 e2 d2 d2 | ^c8 | d2[Q:1/4=118] d4[Q:1/4=116] f2 | %48
w: no. A- di-|o, a-|dio, si- gno-|ra, toc\-|* ca- mi la|ma-|no, toc- ca-|
[Q:1/4=114] f4[Q:1/4=112] (f4- |[Q:1/4=110] f2[Q:1/4=109] e[Q:1/4=109]d)[Q:1/4=107] e4 | %50
w: mi la|* * * ma-|
[Q:1/4=104] f8 |] %51
w: no,|
V:2
 c6 c2 | c4 A4 | z2 d4 d2 | c4 c4 | A6 A2 | A4 A4 | B2 B2 G4 | A4 z2 c2- | c2 c2 c4 | %9
w: Bo- na|se- ra,|bo- na|se- ra,|co- me|sta- i,|co- re mi-|o? Bo\-|* na se-|
[M:2/2][K:treble-8] A4 z2 d2- | d2 d2 c4 | c4 A4- | A2 A2 A4 | A4 B2 B2 | G4 A4 | B4 B2 B2 | %16
w: ra, bo\-|* na se-|ra, co\-|* me sta-|i, co- re|mi- o?|Da l'al- tro|
 B4 A4 | A4 d4 | B4 c4 | A8 | B2 d4 d2 | d4 d4 | c8 | d8 | z4 d4 | d6 d2 | c2 c2 c4 | B4 z2 d2 | %28
w: gior- no|non t'a-|gio ve-|du-|ta. non t'a-|gio ve-|du-|ta.|I'|t'a- gio|co- no- sciu-|ta, i'|
 d2 d2 c2 c2 | A4 d4 | d8- | d4 c4 | B8 | A2 d2 d4 | c4 z2 c2 | c2 c2 c4 | B4 z2 c2- | %37
w: t'a- gio co- no-|sciu- ta|di|* lon-|ta-|no. A- di-|o, a-|dio, si- gno-|ra, toc\-|
 c2 c2 A2 A2 | A8 | A2 A4 d2 | c2 c2 c4 | c2 c2 c4 | c4 z2 c2 | c2 c2 c4 | B4 z2 c2- | %45
w: * ca- mi la|ma-|no, toc- ca-|mi la ma-|no. A- di-|o, a-|dio, si- gno-|ra, toc\-|
 c2 c2 A2 A2 | A8 | A2 A4 d2 | c4 c4 | c8 | c8 |] %51
w: * ca- mi la|ma-|no, toc- ca-|mi la|ma-|no.|
V:3
 A,6 A,2 | G,4 ^F,4 | z2 B,4 B,2 | A,4 G,4 | F,6 F,2 | E,4 F,4 | D,2 F,4 E,2 | F,4 z2 A,2- | %8
w: Bo- na|se- ra,|bo- na|se- ra,|co- me|sta- i,|co- re mi-|o? Bo\-|
 A,2 A,2 G,4 |[M:2/2] F,4 z2 B,2- | B,2 B,2 A,4 | G,4 F,4- | F,2 F,2 E,4 | F,4 D,2 (F,2- | %14
w: * na se-|ra, bo\-|* na se-|ra, co\-|* me sta-|i, co- re~mi\-|
 F,2 E,2) F,4 | F,4 F,2 F,2 | G,4 E,4 | ^F,6 =F,2 | G,4 G,4- | G,4 ^F,4 | G,2 B,4 B,2 | A,4 B,4- | %22
w: * * o?|Da l'al- tro|gior- no|non t'a-|gio ve\-|* du-|ta. non t'a-|gio ve\-|
 B,4 A,4 | B,8 | z4 A,4 | B,6 B,2 | G,2 G,2 A,4 | F,4 z2 B,2 | B,2 B,2 G,2 G,2 | ^F,4 B,4 | B,8- | %31
w: * du-|ta.|I'|t'a- gio|co- no- sciu-|ta, i'|t'a- gio co- no-|sciu- ta|di|
 B,4 A,4 | G,8 | F,4 z2 A,2 | A,4 G,4 | z2 G,2 A,2 A,2 | F,4 E,2 G,2- | G,2 G,2 F,2 F,2 | E,8 | %39
w: * lon-|ta-|no. A-|di- o,|a- dio, si-|gno- ra, toc\-|* ca- mi la|ma-|
 F,2 F,4 A,2 | A,2 A,2 G,4 | A,4 z2 A,2 | A,4 G,4 | z2 G,2 A,2 A,2 | F,4 E,2 G,2- | %45
w: no, toc- ca-|mi la ma-|no. A-|di- o,|a- dio, si-|gno- ra, toc\-|
 G,2 G,2 F,2 F,2 | E,8 | F,2 F,4 A,2 | A,4 A,4 | G,8 | A,8 |] %51
w: * ca- mi la|ma-|no, toc- ca-|mi la|ma-|no.|
V:4
 F,6 F,2 | C,4 D,4 | z2 B,,4 B,,2 | F,4 C,4 | D,6 D,2 | A,,4 D,4 | B,,2 B,,2 C,4 | F,,4 z2 F,2- | %8
w: Bo- na|se- ra,|bo- na|se- ra,|co- me|sta- i,|co- re mi-|o? Bo\-|
 F,2 E,2 C,4 |[M:2/2] D,4 z2 B,,2- | B,,2 B,,2 F,4 | C,4 D,4- | D,2 D,2 A,,4 | D,4 B,,2 B,,2 | %14
w: * na se-|ra, bo\-|* na se-|ra, co\-|* me sta-|i, co- re|
 C,4 F,,4 | B,,4 B,,2 B,,2 | G,,4 A,,4 | D,4 D,4 | _E,4 C,4 | D,8 | G,,2 G,,4 G,,2 | D,4 B,,4 | %22
w: mi- o?|Da l'al- tro|gior- no|non t'a-|gio ve-|du-|ta. non t'a-|gio ve-|
 F,8 | B,,8 | z4 D,4 | G,6 G,2 | C,2 C,2 F,4 | B,,4 z2 B,,2 | B,,2 B,,2 C,2 C,2 | D,4 G,,4 | %30
w: du-|ta.|I'|t'a- gio|co- no- sciu-|ta, i'|t'a- gio co- no-|sciu- ta|
 B,,8- | B,,4 F,,4 | G,,8 | D,4 z2 D,2 | F,4 C,4 | z2 C,2 F,2 F,2 | B,,4 C,2 C,2- | %37
w: di|* lon-|ta-|no. A-|di- o,|a- dio, si-|gno- ra, toc\-|
 C,2 C,2 D,2 D,2 | A,,8 | D,2 D,4 D,2 | F,2 F,2 C,4 | F,,4 z2 F,2 | F,4 C,4 | z2 C,2 F,2 F,2 | %44
w: * ca- mi la|ma-|no, toc- ca-|mi la ma-|no. A-|di- o,|a- dio, si-|
 B,,4 C,2 C,2- | C,2 C,2 D,2 D,2 | A,,8 | D,2 D,4 D,2 | F,4 F,4 | C,8 | F,8 |] %51
w: gno- ra, toc\-|* ca- mi la|ma-|no, toc- ca-|mi la|ma-|no.|

